flaticon/army-badges/target-3.svg

<svg xmlns="http://www.w3.org/2000/svg" width="32" height="32" viewBox="0 0 24 24">
    <path d="M 12 0 C 5.398438 0 0 5.359375 0 12 C 0 18.640625 5.398438 24 12 24 C 18.601562 24 24 18.601562 24 12 C 24 5.398438 18.601562 0 12 0 Z M 12 23.199219 C 5.839844 23.199219 0.800781 18.160156 0.800781 12 C 0.800781 5.839844 5.839844 0.800781 12 0.800781 C 18.160156 0.800781 23.199219 5.839844 23.199219 12 C 23.199219 18.160156 18.160156 23.199219 12 23.199219 Z M 12 23.199219"/>
    <path d="M 12 1.601562 C 6.28125 1.601562 1.601562 6.28125 1.601562 12 C 1.601562 17.761719 6.28125 22.398438 12 22.398438 C 17.71875 22.398438 22.398438 17.761719 22.398438 12 C 22.398438 6.28125 17.71875 1.601562 12 1.601562 Z M 12 21.601562 C 6.71875 21.601562 2.398438 17.28125 2.398438 12 C 2.398438 6.71875 6.71875 2.398438 12 2.398438 C 17.28125 2.398438 21.601562 6.71875 21.601562 12 C 21.601562 17.28125 17.28125 21.601562 12 21.601562 Z M 12 21.601562"/>
    <path d="M6.679688 9.320312C6.519531 9.160156 6.28125 9.160156 6.121094 9.320312L3.71875 11.71875C3.558594 11.878906 3.558594 12.121094 3.71875 12.28125L6.121094 14.679688C6.199219 14.761719 6.28125 14.800781 6.398438 14.800781 6.519531 14.800781 6.601562 14.761719 6.679688 14.679688 6.839844 14.519531 6.839844 14.28125 6.679688 14.121094L4.558594 12 6.679688 9.878906C6.839844 9.71875 6.839844 9.480469 6.679688 9.320312zM14.121094 17.320312L12 19.441406 9.878906 17.320312C9.71875 17.160156 9.480469 17.160156 9.320312 17.320312 9.160156 17.480469 9.160156 17.71875 9.320312 17.878906L11.71875 20.28125C11.800781 20.359375 11.878906 20.398438 12 20.398438 12.121094 20.398438 12.199219 20.359375 12.28125 20.28125L14.679688 17.878906C14.839844 17.71875 14.839844 17.480469 14.679688 17.320312 14.519531 17.160156 14.28125 17.160156 14.121094 17.320312zM16 11.601562L12.398438 11.601562 12.398438 8C12.398438 7.761719 12.238281 7.601562 12 7.601562 11.761719 7.601562 11.601562 7.761719 11.601562 8L11.601562 11.601562 8 11.601562C7.761719 11.601562 7.601562 11.761719 7.601562 12 7.601562 12.238281 7.761719 12.398438 8 12.398438L11.601562 12.398438 11.601562 16C11.601562 16.238281 11.761719 16.398438 12 16.398438 12.238281 16.398438 12.398438 16.238281 12.398438 16L12.398438 12.398438 16 12.398438C16.238281 12.398438 16.398438 12.238281 16.398438 12 16.398438 11.761719 16.238281 11.601562 16 11.601562zM20.28125 11.71875L17.878906 9.320312C17.71875 9.160156 17.480469 9.160156 17.320312 9.320312 17.160156 9.480469 17.160156 9.71875 17.320312 9.878906L19.441406 12 17.320312 14.121094C17.160156 14.28125 17.160156 14.519531 17.320312 14.679688 17.398438 14.761719 17.480469 14.800781 17.601562 14.800781 17.71875 14.800781 17.800781 14.761719 17.878906 14.679688L20.28125 12.28125C20.441406 12.121094 20.441406 11.878906 20.28125 11.71875zM9.878906 6.679688L12 4.558594 14.121094 6.679688C14.199219 6.761719 14.28125 6.800781 14.398438 6.800781 14.519531 6.800781 14.601562 6.761719 14.679688 6.679688 14.839844 6.519531 14.839844 6.28125 14.679688 6.121094L12.28125 3.71875C12.121094 3.558594 11.878906 3.558594 11.71875 3.71875L9.320312 6.121094C9.160156 6.28125 9.160156 6.519531 9.320312 6.679688 9.480469 6.839844 9.71875 6.839844 9.878906 6.679688zM9.878906 6.679688"/>
</svg>

<svg xmlns="http://www.w3.org/2000/svg" width="32" height="32" viewBox="0 0 24 24">
    <path d="M12 0C5.398 0 0 5.36 0 12s5.398 12 12 12 12-5.398 12-12S18.602 0 12 0zm0 23.2C5.84 23.2.8 18.16.8 12 .8 5.84 5.84.8 12 .8 18.16.8 23.2 5.84 23.2 12c0 6.16-5.04 11.2-11.2 11.2zm0 0"/>
    <path d="M12 1.602C6.281 1.602 1.602 6.282 1.602 12c0 5.762 4.68 10.398 10.398 10.398 5.719 0 10.398-4.636 10.398-10.398 0-5.719-4.68-10.398-10.398-10.398zm0 20c-5.281 0-9.602-4.32-9.602-9.602 0-5.281 4.32-9.602 9.602-9.602 5.281 0 9.602 4.32 9.602 9.602 0 5.281-4.32 9.602-9.602 9.602zm0 0"/>
    <path d="M6.68 9.32a.385.385 0 0 0-.559 0L3.72 11.72a.39.39 0 0 0 0 .562L6.12 14.68c.078.082.16.12.277.12.122 0 .204-.038.282-.12a.385.385 0 0 0 0-.559L4.559 12l2.12-2.121a.385.385 0 0 0 0-.559zm0 0M14.121 17.32L12 19.441l-2.121-2.12a.385.385 0 0 0-.559 0 .385.385 0 0 0 0 .558l2.399 2.402c.082.078.16.117.281.117.121 0 .2-.039.281-.117l2.399-2.402a.385.385 0 0 0 0-.559.385.385 0 0 0-.559 0zm0 0M16 11.602h-3.602V8c0-.238-.16-.398-.398-.398-.238 0-.398.16-.398.398v3.602H8c-.238 0-.398.16-.398.398 0 .238.16.398.398.398h3.602V16c0 .238.16.398.398.398.238 0 .398-.16.398-.398v-3.602H16c.238 0 .398-.16.398-.398 0-.238-.16-.398-.398-.398zm0 0M20.281 11.719L17.88 9.32a.385.385 0 0 0-.559 0 .385.385 0 0 0 0 .559L19.441 12l-2.12 2.121a.385.385 0 0 0 0 .559c.077.082.16.12.28.12.118 0 .2-.038.278-.12l2.402-2.399a.39.39 0 0 0 0-.562zm0 0M9.879 6.68L12 4.559l2.121 2.12c.078.083.16.122.277.122.122 0 .204-.04.282-.121a.385.385 0 0 0 0-.559L12.28 3.72a.39.39 0 0 0-.562 0L9.32 6.12a.385.385 0 0 0 0 .559c.16.16.399.16.559 0zm0 0"/>
</svg>
